public/images/logo_arisa.svg

<svg fill="none" height="60" viewBox="0 0 174 60" width="174" xmlns="http://www.w3.org/2000/svg"><g fill="#ddd"><path d="m45.3117 47.7923-12.935-36.1559h-6.8572l-12.935 36.1559zm-8.6233-5.7923h-15.75l8.0097-23.1948z"/><path d="m84.7975 47.7923h5.9221v-36.1039h-5.9221z"/><path d="m123.378 37.5585c0-13.1948-19.117-8.1039-19.117-16.2598 0-3.4805 2.649-5.1428 6.078-5.0389 3.74.1039 5.87 2.3376 6.078 4.7792h6.545c-.519-6.1818-5.402-9.8182-12.311-9.8182-7.377 0-12.416 3.9481-12.416 10.2857 0 13.2987 19.169 7.6364 19.169 16.3637 0 3.0649-2.338 5.2987-6.494 5.2987-4.104 0-6.181-2.3896-6.441-5.3507h-6.3379c0 6.3896 5.5589 10.3377 12.7789 10.3377 8.052 0 12.468-5.1948 12.468-10.5974z"/><path d="m70.6242 22.4936c0 3.5844-2.0779 6.1298-6.7013 6.1298h-1.0129v6.4874l7.2986 12.6815h7.065l-8.9351-14.9611c6.0779-1.5065 8.3637-6.0779 8.3637-10.3376 0-5.8702-4.2078-10.8052-12.7793-10.8052h-12.4675v36.1039h5.9221v-31.2728h6.5454c4.6234 0 6.7013 2.3377 6.7013 5.9741z"/><path d="m161.486 47.7923-12.935-36.1558h-6.858l-12.935 36.1558zm-8.624-5.7923h-15.75l8.01-23.1947z"/></g></svg>

<svg width="174" height="60" viewBox="0 0 174 60" fill="none" xmlns="http://www.w3.org/2000/svg">
<path d="M45.3117 47.7923L32.3767 11.6364H25.5195L12.5845 47.7923H45.3117ZM36.6884 42H20.9384L28.9481 18.8052L36.6884 42Z" fill="#DDDDDD"/>
<path d="M84.7975 47.7923H90.7196V11.6884H84.7975V47.7923Z" fill="#DDDDDD"/>
<path d="M123.378 37.5585C123.378 24.3637 104.261 29.4546 104.261 21.2987C104.261 17.8182 106.91 16.1559 110.339 16.2598C114.079 16.3637 116.209 18.5974 116.417 21.039H122.962C122.443 14.8572 117.56 11.2208 110.651 11.2208C103.274 11.2208 98.235 15.1689 98.235 21.5065C98.235 34.8052 117.404 29.1429 117.404 37.8702C117.404 40.9351 115.066 43.1689 110.91 43.1689C106.806 43.1689 104.729 40.7793 104.469 37.8182H98.1311C98.1311 44.2078 103.69 48.1559 110.91 48.1559C118.962 48.1559 123.378 42.9611 123.378 37.5585Z" fill="#DDDDDD"/>
<path d="M70.6242 22.4936C70.6242 26.078 68.5463 28.6234 63.9229 28.6234H62.91V35.1108L70.2086 47.7923H77.2736L68.3385 32.8312C74.4164 31.3247 76.7022 26.7533 76.7022 22.4936C76.7022 16.6234 72.4944 11.6884 63.9229 11.6884H51.4554V47.7923H57.3775V16.5195H63.9229C68.5463 16.5195 70.6242 18.8572 70.6242 22.4936Z" fill="#DDDDDD"/>
<path d="M161.486 47.7923L148.551 11.6365H141.693L128.758 47.7923H161.486ZM152.862 42H137.112L145.122 18.8053L152.862 42Z" fill="#DDDDDD"/>
</svg>
